data/yusei-magic.svg

<svg width="79.87" height="20.272" viewBox="0 0 79.87 20.272" xmlns="http://www.w3.org/2000/svg"><path transform="translate(0 16.24) scale(.014 -.014)" d="m363 34q0-14-10-24t-24-10h-60q-14 0-24 10t-10 24v251l-176 415q-10 21-10 37 0 23 36 23h40q11 0 21-4t14-15l136-342 142 342q5 11 14.5 15t20.5 4h40q37 0 37-22 0-11-11-38l-176-404z"/><path transform="translate(8.4 16.24) scale(.014 -.014)" d="m523 34q0-14-10-24t-24-10h-50q-12 0-21.5 7.5t-11.5 19.5q-32-17-71.5-27t-85.5-10q-71 0-111.5 22t-59 76-23.5 148-5 238q0 16 10 26t24 10h50q14 0 24-10.5t10-26.5q0-112 3.5-188t10-123 16.5-71 22.5-32.5 28.5-8.5q45 0 80 22t55.5 60.5 20.5 88.5v255q0 14 10 24t24 10h50q14 0 24-10t10-24z"/><path transform="translate(16.422 16.24) scale(.014 -.014)" d="m33 104q-3 6-3 11 0 12 11 20.5t25 8.5h58q24 0 31-28 8-29 37-47t87-18q64 0 88.5 23t24.5 66q0 44-33 69.5t-93 23.5q-84-2-133.5 15.5t-71 48.5-21.5 69q0 71 63.5 112.5t179.5 41.5q129 0 196-55 27-22 27-39 0-10-8-15l-17-13q-10-7-19-7-10 0-16 5-43 32-82.5 48t-80.5 16q-56 0-85.5-26.5t-29.5-67.5q0-39 22.5-56t75.5-17q68 0 126-18t93-52.5 35-82.5q0-43-31-77t-85.5-53-124.5-19q-91 0-157.5 33t-88.5 80z"/><path transform="translate(24.122 16.24) scale(.014 -.014)" d="m473 67q-31-31-78.5-54t-103.5-23q-124 0-192.5 71.5t-68.5 192.5q0 76 31.5 136t87 95 128.5 35q75 0 131.5-32t88.5-88 32-129q0-14-9.5-23t-23.5-9h-358q4-89 47-139t106-50q32 0 51 17t38 48q11 22 34 17l37-9q31-8 31-35 0-12-9-21zm-196 393q-29 0-57-21.5t-49-57.5-29-82h258q-6 71-39 116t-84 45z"/><path transform="translate(31.948 16.24) scale(.014 -.014)" d="m218 637q0-14-10-24t-24-10h-60q-14 0-24 10t-10 24v59q0 14 10 24t24 10h60q14 0 24-10t10-24zm0-603q0-14-10-24t-24-10h-60q-14 0-24 10t-10 24v442q0 14 10 24t24 10h60q14 0 24-10t10-24z"/><path transform="translate(41.58 16.24) scale(.014 -.014)" d="m381 144q-9-20-22-20t-22 20l-177 386v-497q0-33-33-33h-44q-33 0-33 33v694q0 33 33 33h38q27 0 39-25l197-412 196 412q11 25 39 25h38q33 0 33-33v-694q0-33-33-33h-44q-33 0-33 33v494z"/><path transform="translate(51.562 16.24) scale(.014 -.014)" d="m225-10q-64 0-108.5 33.5t-68 92.5-23.5 135q0 75 27.5 136t76.5 97 115 36q86 0 143-36.5t85-94.5 28-123q0-4 0-8 7-67 16-121.5t18-90.5q1-3 1-8 0-30-31-35l-57-7q-28-3-35 23-4 16-7 33-34-29-79-45.5t-101-16.5zm0 60q49 0 81 32.5t48.5 82.5 16.5 103q0 0 0 0.5t0 3.5q-1 5-1 11 0 5 0 9-3 44-18 82.5t-42 62-66 23.5q-21 0-42-30.5t-35-78.5-14-100 11-98 28-74.5 33-28.5z"/><path transform="translate(59.528 16.24) scale(.014 -.014)" d="m110-124q-11 11-11 24 0 26 30 36l32 10q3 1 8 1 17 0 27-15 26-38 43.5-50t45.5-12q54 0 84.5 23.5t30.5 72.5v70q-26-22-58.5-34t-72.5-12q-71 0-125 35.5t-84 97-30 138.5q0 76 27 134t77.5 91.5 121.5 33.5q45 0 81-11t63-31q1 14 10 23t24 9h50q14 0 24-10t10-24v-510q0-46-30.5-81t-83.5-55-119-20q-107 0-175 66zm159 175q31 0 61 21t49.5 66.5 19.5 116.5q0 109-37 156.5t-106 47.5q-25 0-50-21.5t-41.5-65.5-16.5-111q0-60 12.5-107.5t39-75 69.5-27.5z"/><path transform="translate(67.76 16.24) scale(.014 -.014)" d="m218 637q0-14-10-24t-24-10h-60q-14 0-24 10t-10 24v59q0 14 10 24t24 10h60q14 0 24-10t10-24zm0-603q0-14-10-24t-24-10h-60q-14 0-24 10t-10 24v442q0 14 10 24t24 10h60q14 0 24-10t10-24z"/><path transform="translate(72.072 16.24) scale(.014 -.014)" d="m515 373q3-7 3-13 0-13-10-21.5t-24-10.5l-54-5q-12-1-21.5 6t-12.5 19q-15 50-45.5 81t-73.5 31q-33 0-60-28t-43-75-16-103q0-96 34-150t99-54q44 0 71 33t40 94q7 29 35 27l57-5q14-1 23.5-10t9.5-22q0-4-2-10-22-75-83-121t-151-46q-124 0-192.5 71.5t-68.5 192.5q0 76 31.5 136t87 95 128.5 35q55 0 102.5-20t83-53 52.5-74z"/></svg>

<?xml version="1.0" encoding="utf-8" ?>
<svg baseProfile="tiny" height="100%" version="1.2" width="100%" xmlns="http://www.w3.org/2000/svg" xmlns:ev="http://www.w3.org/2001/xml-events" xmlns:xlink="http://www.w3.org/1999/xlink"><defs /><g><path d="M363 34Q363 20 353.0 10.0Q343 0 329 0H269Q255 0 245.0 10.0Q235 20 235 34V285L59 700Q49 721 49 737Q49 760 85 760H125Q136 760 146.0 756.0Q156 752 160 741L296 399L438 741Q443 752 452.5 756.0Q462 760 473 760H513Q550 760 550 738Q550 727 539 700L363 296Z" transform="translate(0.0, 72) scale(0.072, -0.072)" /><path d="M523 34Q523 20 513.0 10.0Q503 0 489 0H439Q427 0 417.5 7.5Q408 15 406 27Q374 10 334.5 0.0Q295 -10 249 -10Q178 -10 137.5 12.0Q97 34 78.5 88.0Q60 142 55.0 236.0Q50 330 50 474Q50 490 60.0 500.0Q70 510 84 510H134Q148 510 158.0 499.5Q168 489 168 473Q168 361 171.5 285.0Q175 209 181.5 162.0Q188 115 198.0 91.0Q208 67 220.5 58.5Q233 50 249 50Q294 50 329.0 72.0Q364 94 384.5 132.5Q405 171 405 221V476Q405 490 415.0 500.0Q425 510 439 510H489Q503 510 513.0 500.0Q523 490 523 476Z" transform="translate(43.199999999999996, 72) scale(0.072, -0.072)" /><path d="M33 104Q30 110 30 115Q30 127 41.0 135.5Q52 144 66 144H124Q148 144 155 116Q163 87 192.0 69.0Q221 51 279 51Q343 51 367.5 74.0Q392 97 392 140Q392 184 359.0 209.5Q326 235 266 233Q182 231 132.5 248.5Q83 266 61.5 297.0Q40 328 40 366Q40 437 103.5 478.5Q167 520 283 520Q412 520 479 465Q506 443 506 426Q506 416 498 411L481 398Q471 391 462 391Q452 391 446 396Q403 428 363.5 444.0Q324 460 283 460Q227 460 197.5 433.5Q168 407 168 366Q168 327 190.5 310.0Q213 293 266 293Q334 293 392.0 275.0Q450 257 485.0 222.5Q520 188 520 140Q520 97 489.0 63.0Q458 29 403.5 10.0Q349 -9 279 -9Q188 -9 121.5 24.0Q55 57 33 104Z" transform="translate(84.45599999999999, 72) scale(0.072, -0.072)" /><path d="M473 67Q442 36 394.5 13.0Q347 -10 291 -10Q167 -10 98.5 61.5Q30 133 30 254Q30 330 61.5 390.0Q93 450 148.5 485.0Q204 520 277 520Q352 520 408.5 488.0Q465 456 497.0 400.0Q529 344 529 271Q529 257 519.5 248.0Q510 239 496 239H138Q142 150 185.0 100.0Q228 50 291 50Q323 50 342.0 67.0Q361 84 380 115Q391 137 414 132L451 123Q482 115 482 88Q482 76 473 67ZM277 460Q248 460 220.0 438.5Q192 417 171.0 381.0Q150 345 142 299H400Q394 370 361.0 415.0Q328 460 277 460Z" transform="translate(124.05599999999998, 72) scale(0.072, -0.072)" /><path d="M218 637Q218 623 208.0 613.0Q198 603 184 603H124Q110 603 100.0 613.0Q90 623 90 637V696Q90 710 100.0 720.0Q110 730 124 730H184Q198 730 208.0 720.0Q218 710 218 696ZM218 34Q218 20 208.0 10.0Q198 0 184 0H124Q110 0 100.0 10.0Q90 20 90 34V476Q90 490 100.0 500.0Q110 510 124 510H184Q198 510 208.0 500.0Q218 490 218 476Z" transform="translate(164.30399999999997, 72) scale(0.072, -0.072)" /><path d="M381 144Q372 124 359 124Q346 124 337 144L160 530V33Q160 0 127 0H83Q50 0 50 33V727Q50 760 83 760H121Q148 760 160 735L357 323L553 735Q564 760 592 760H630Q663 760 663 727V33Q663 0 630 0H586Q553 0 553 33V527Z" transform="translate(213.83999999999997, 72) scale(0.072, -0.072)" /><path d="M225 -10Q161 -10 116.5 23.5Q72 57 48.5 116.0Q25 175 25 251Q25 326 52.5 387.0Q80 448 129.0 484.0Q178 520 244 520Q330 520 387.0 483.5Q444 447 472.0 389.0Q500 331 500 266Q500 262 500 258Q507 191 516.0 136.5Q525 82 534 46Q535 43 535 38Q535 8 504 3L447 -4Q419 -7 412 19Q408 35 405 52Q371 23 326.0 6.5Q281 -10 225 -10ZM225 50Q274 50 306.0 82.5Q338 115 354.5 165.0Q371 215 371 268Q371 268 371.0 268.5Q371 269 371 272Q370 277 370 283Q370 288 370 292Q367 336 352.0 374.5Q337 413 310.0 436.5Q283 460 244 460Q223 460 202.0 429.5Q181 399 167.0 351.0Q153 303 153 251Q153 199 164.0 153.0Q175 107 192.0 78.5Q209 50 225 50Z" transform="translate(265.176, 72) scale(0.072, -0.072)" /><path d="M110 -124Q99 -113 99 -100Q99 -74 129 -64L161 -54Q164 -53 169 -53Q186 -53 196 -68Q222 -106 239.5 -118.0Q257 -130 285 -130Q339 -130 369.5 -106.5Q400 -83 400 -34V36Q374 14 341.5 2.0Q309 -10 269 -10Q198 -10 144.0 25.5Q90 61 60.0 122.5Q30 184 30 261Q30 337 57.0 395.0Q84 453 134.5 486.5Q185 520 256 520Q301 520 337.0 509.0Q373 498 400 478Q401 492 410.0 501.0Q419 510 434 510H484Q498 510 508.0 500.0Q518 490 518 476V-34Q518 -80 487.5 -115.0Q457 -150 404.0 -170.0Q351 -190 285 -190Q178 -190 110 -124ZM269 51Q300 51 330.0 72.0Q360 93 379.5 138.5Q399 184 399 255Q399 364 362.0 411.5Q325 459 256 459Q231 459 206.0 437.5Q181 416 164.5 372.0Q148 328 148 261Q148 201 160.5 153.5Q173 106 199.5 78.5Q226 51 269 51Z" transform="translate(306.144, 72) scale(0.072, -0.072)" /><path d="M218 637Q218 623 208.0 613.0Q198 603 184 603H124Q110 603 100.0 613.0Q90 623 90 637V696Q90 710 100.0 720.0Q110 730 124 730H184Q198 730 208.0 720.0Q218 710 218 696ZM218 34Q218 20 208.0 10.0Q198 0 184 0H124Q110 0 100.0 10.0Q90 20 90 34V476Q90 490 100.0 500.0Q110 510 124 510H184Q198 510 208.0 500.0Q218 490 218 476Z" transform="translate(348.48, 72) scale(0.072, -0.072)" /><path d="M515 373Q518 366 518 360Q518 347 508.0 338.5Q498 330 484 328L430 323Q418 322 408.5 329.0Q399 336 396 348Q381 398 350.5 429.0Q320 460 277 460Q244 460 217.0 432.0Q190 404 174.0 357.0Q158 310 158 254Q158 158 192.0 104.0Q226 50 291 50Q335 50 362.0 83.0Q389 116 402 177Q409 206 437 204L494 199Q508 198 517.5 189.0Q527 180 527 167Q527 163 525 157Q503 82 442.0 36.0Q381 -10 291 -10Q167 -10 98.5 61.5Q30 133 30 254Q30 330 61.5 390.0Q93 450 148.5 485.0Q204 520 277 520Q332 520 379.5 500.0Q427 480 462.5 447.0Q498 414 515 373Z" transform="translate(370.656, 72) scale(0.072, -0.072)" /></g></svg>
